X:1
T:James Gibb editions
T:O love that wilt not let me go (I) - Barnby
%%score [ ( 1 2 ) ( 3 4 ) ]
L:1/8
Q:1/4=140
M:6/4
K:E
V:1 treble nm="Midi_74"
V:2 treble 
V:3 bass nm="Midi_74"
V:4 bass 
V:1
"^Somerleyton (88. 88. 6)""^George Matheson\n(1842-1906)""^O love that wilt not let me go (I)""^Joseph Barnby\n(1838-96)" B2 | %1
 e4 d2 c4 B2 | (B2 A2) c2 B4 A2 | G4 G2 F4 E2 | A4 F2 D4 x2 | F2 x8 || F4 G2 A4 F2 | %7
 (c2 B2) G2 A4 x2 | x10 || A2 |"^cresc." A4 B2 c4 A2 | (e2 =d2) B2 c4 || f2 | e4 B2 (A2 G2) F2 | %14
 E6- E4 || A6 G6 |] %16
V:2
 B2 | G4 B2 A4 G2 | (G2 F2) F2 F4 x2 | D2 x10 | B,4 ^B,2 C4 C2 | C4 C2 B,4 || D2 x10 | %7
 D4 =D2 C4 C2 | ^E4 C2 C4 || F2 | A4 A2 A4 A2 | G4 E2 E4 || A2 | G4 E2 D4 D2 | E6- E4 || E6 E6 |] %16
V:3
 B,2 | B,4 G,2 A,4 B,2 | C4 A,2 B,4 x2 | B,2 x10 | B,4 G,2 A,4 G,2 | C4 A,2 F,4 || B,2 x10 | %7
 B,4 B,2 A,4 A,2 | G,4 B,2 A,4 || C2 | %10
 C4 F2 E4"^1 O love that wilt not let me go,\nI rest my weary soul in thee;\nI give thee back the life I owe,\nthat in thine ocean depths its flow\nmay richer, fuller be.\n\n2 O light that followest all my way,\nI yield my flickering torch to thee;\nmy heart restores its borrowed ray,\nthat in thy sunshine’s blaze its day\nmay brighter, fairer be.\n\n3 O joy that seekest me through pain,\nI cannot close my heart to thee;\nI trace the rainbow through the rain,\nand feel the promise is not vain\nthat morn shall tearless be.\n\n4 O cross that liftest up my head,\nI dare not ask to fly from thee;\nI lay in dust life’s glory dead,\nand from the ground there blossoms red\nlife that shall endless be." C2 | %11
 B,4 =D2 C4 || =C2 | B,4 G,2 (C2 B,2) A,2 | G,6- G,4 || C6 B,6 |] %16
V:4
 B,2 | E,4 E,2 E,4 E,2 | E,4 E,2 D,4 x2 | B,,2 x10 | E,4 G,,2 C,4 C,2 | F,,4 A,,2 B,,4 || B,2 x10 | %7
 B,4 ^E,2 F,4 A,2 | C,4 ^E,2 F,4 || F,2 | F,4 =D,2 E,4 E,2 | E,4 G,2 A,4 || A,,2 | %13
 B,,4 B,,2 B,,4 B,,2 | E,6- E,4 || A,,6 E,6 |] %16

